images/Pirate-Heijn-Logo-Dark.svg

<?xml version="1.0" encoding="UTF-8"?>
<svg width="507px" height="680px" viewBox="0 0 507 680" version="1.1" xmlns="http://www.w3.org/2000/svg" xmlns:xlink="http://www.w3.org/1999/xlink">
    <title>Pirate-Heijn-Logo-Dark</title>
    <defs>
        <path d="M154.550904,665 L154.549777,446.25 L154.549777,446.25 L263.457231,446.25 C347.607231,446.25 408.977563,426.778808 447.568227,387.836423 L448.730669,386.650391 C487.246294,346.917318 506.504106,292.851562 506.504106,224.453125 C506.504106,179.739583 498.314002,140.559896 481.933794,106.914062 C465.553585,73.2682292 439.544471,47.0377604 403.90645,28.2226562 C368.268429,9.40755208 321.452023,0 263.457231,0 L15.4884813,0 C7.20421004,3.29815278e-15 0.488481291,6.71572875 0.488481291,15 L0.488481291,665 C0.488481291,673.284271 7.20421004,680 15.4884813,680 L139.550981,680 C147.835253,680.000077 154.550981,673.284349 154.550981,665.000077 C154.550981,665.000052 154.550981,665.000026 154.550904,665 Z M350.449454,178.579723 L350.449454,236.487177 C350.449454,269.690302 329.491126,326.799677 253.496329,326.799677 C177.501532,326.799677 157.871329,269.690302 157.871329,236.487177 L157.869094,178.579723 L350.449454,178.579723 Z" id="path-1"></path>
    </defs>
    <g id="Pirate-Heijn-Logo-Dark" stroke="none" stroke-width="1" fill="none" fill-rule="evenodd">
        <g id="Group" transform="translate(0.500000, 0.000000)">
            <rect id="Rectangle" fill="#181818" x="99.0158771" y="69.7" width="324.7" height="275.4"></rect>
            <g id="Line">
                <mask id="mask-2" fill="white">
                    <use xlink:href="#path-1"></use>
                </mask>
                <use id="Mask" fill="#FF8A00" fill-rule="nonzero" xlink:href="#path-1"></use>
                <path d="M471.076199,88.7386272 L500.560571,150.014004 C412.866229,192.210605 329.302976,213.610798 249.96325,213.798293 C174.115409,213.977536 87.9202393,203.489022 -8.7330955,182.429793 L-11.6651857,181.788399 L2.9209229,115.371192 C96.2058092,135.857803 178.537763,145.966895 249.802554,145.798483 C317.65621,145.638132 390.594647,127.131076 468.707557,89.8733879 L471.076199,88.7386272 Z" fill="#181818" fill-rule="nonzero" mask="url(#mask-2)" transform="translate(244.447693, 151.269590) rotate(-7.000000) translate(-244.447693, -151.269590) "></path>
            </g>
        </g>
    </g>
</svg>

<svg xmlns="http://www.w3.org/2000/svg" xmlns:xlink="http://www.w3.org/1999/xlink" width="507" height="680" viewBox="0 0 507 680"><title>Pirate-Heijn-Logo-Dark</title><defs><path id="a" d="M154.55 665V446.25h108.907c84.15 0 145.52-19.471 184.111-58.414l1.163-1.186c38.515-39.733 57.773-93.798 57.773-162.197 0-44.713-8.19-83.893-24.57-117.539-16.38-33.646-42.39-59.876-78.028-78.691C368.268 9.408 321.452 0 263.457 0H15.488c-8.284 0-15 6.716-15 15v650c0 8.284 6.716 15 15 15h124.063c8.284 0 15-6.716 15-15zm195.9-486.42v57.907c0 33.203-20.959 90.313-96.954 90.313-75.994 0-95.625-57.11-95.625-90.313l-.002-57.907h192.58z"/></defs><g fill="none" fill-rule="evenodd"><path fill="#181818" d="M99.516 69.7h324.7v275.4h-324.7z"/><g transform="translate(.5)"><mask id="b" fill="#fff"><use xlink:href="#a"/></mask><use fill="#FF8A00" fill-rule="nonzero" xlink:href="#a"/><path fill="#181818" fill-rule="nonzero" d="M471.076 88.739l29.485 61.275c-87.695 42.197-171.258 63.597-250.598 63.784-75.848.18-162.043-10.309-258.696-31.368l-2.932-.642L2.92 115.371c93.285 20.487 175.617 30.596 246.882 30.427 67.853-.16 140.792-18.667 218.905-55.925l2.368-1.134z" mask="url(#b)" transform="rotate(-7 244.448 151.27)"/></g></g></svg>
